X:61
T: Molihua(2)
N: C1559
O: China,Liaoning, Changhai
S: III, 276]
R: Xiaodiao, Shidiao, Molihua diao]
M: 2/4
L: 1/32
K: D
B6d2B4A4 | B6A2B3de2f2 | d4B4A8- | A4F4E4F4 | A16 |
B6d2B4A4 | B6A2B3de2f2 | d4B4A8- | A4F4E4F4 | A4z4
A4F4 | A12F2A2 | B4d4B4A4 | F8A4F4 |
E4F4E4E4 | F4A4F4E4 | A4D8E4 | D16 |
D4B,4A4F4 | E12F4 | A8z8 | B4d4B4A4 | F8A4F4 |
E6F2E4D4 | D4A,4B,8 | z8
d8 | e12f4 | d4e4d4B4 | A4B4d4e4 | B4A4F4E2F2 | A16

@@@ Tune index: 6616
